!!!Melodie: eigene
!!!Typ: Lied
**kern	**silbe	**silbe	**silbe	**silbe
*clefG2	*lang:DE	*lang:DE	*lang:DE	*lang:DE
*k[b-]	*	*	*	*
*M4/4	*	*	*	*
4c	Nun	Nun	Doch	Schwei#
4c	ge#	in	ob	#gen
=	=	=	=	=
4f	#hö#	heil#	tau#	müs#
4e	#ren	#'gem	#send	#sen
4f	un#	Stil#	To#	nun
4g	#s're	#le#	#des#	die
=	=	=	=	=
4f	Her#	#schwei#	#näch#	Fein#
4f	#zen	#gen	#te	#de
4g	ganz	steh#	lie#	vor
4a	dem	#en	#gen	dem
=	=	=	=	=
4b-	Mann	wir	ü#	Sieg
4a	von	auf	#ber	von
4f	Gol#	Gol#	Gol#	Gol#
4g	#ga#	#ga#	#ga#	#ga#
=	=	=	=	=
2a	#tha,	#tha.	#tha,	#tha.
4c	der	Tief	ob	Die
4c	in	und	der	be#
=	=	=	=	=
4f	bit#	tie#	Höl#	#gna#
4e	#ter'n	#fer	#le	#dig#
4f	To#	wir	Lü#	#te
4g	#des#	uns	#gen#	Ge#
=	=	=	=	=
4f	#schmer#	nei#	#mäch#	#mein#
4f	#zen	#gen	#te	#de
4g	das	vor	tri#	sagt
4a	Ge#	dem	#um#	zu
=	=	=	=	=
4b-	#heim#	Wun#	#phie#	Chris#
4a	#nis	#der,	#ren	#ti
4f	Got#	das	fern	We#
4g	#tes	ge#	und	#gen:
=	=	=	=	=
2a	sah,	#schah,	nah,	Ja!
4cc	das	als	den#	Ja,
4cc	Ge#	der	#noch	wir
=	=	=	=	=
4.a	#heim#	Frei#	dringt	dan#
8g	#nis	#e	als	#ken
4a	des	ward	Ü#	dei#
4cc	Ge#	zum	#ber#	#nen
=	=	=	=	=
4dd	#rich#	Knech#	#win#	Schmer#
4dd	#tes	#te	#der	#zen;
4cc	ü#	und	Chris#	ja,
4b-	#ber	der	#tus	wir
=	=	=	=	=
4a	al#	Größ#	durch	prei#
4a	#ler	#te	des	#sen
4g	Men#	ganz	Ster#	dei#
4f	#schen	ge#	#bens	#ne
=	=	=	=	=
2g	Schuld,	#ring,	Tor;	Treu;
4c	das	als	und	ja,
4c	Ge#	für	die	wir
=	=	=	=	=
4.f	#heim#	Sün#	sonst	die#
8e	#nis	#der	des	#nen
4f	neu#	der	To#	dir
4g	#en	Ge#	#des	von
=	=	=	=	=
4a	Lich#	#rech#	Kin#	Her#
4cc	#tes	#te	#der,	#zen;
4b-	aus	in	führt	ja
4a	des	des	zum	du
=	=	=	=	=
4g	Va#	To#	Le#	machst
4f	#ters	#des	#ben	einst
4d	ew#	Ra#	er	al#
4e	#'ger	#chen	em#	#les
=	=	=	=	=
2f	Huld.	ging.	#por.	neu.
==	==	==	==	==
*-	*-	*-	*-	*-
